X:1
T:Genevan Psalm CX, 11.10.11.10
T:Louis Bourgeois, 1551
T:Genevan Psalm CX, 11.10.11.10
T:Public Domain
C:Louis Bourgeois, 1551
Z:Public Domain
%%score ( 1 2 ) ( 3 4 )
L:1/8
M:none
K:C
V:1 treble 
V:2 treble 
V:3 bass 
V:4 bass 
V:1
 [EA]4 G2 z ^F x | [GB]4 [Gc]4 | d2 z =G [^Gd]2 [Ac]2 | A2 ^G2 A4 | [Ec]4 [EB]2 (CD) | %5
 [EG]4 z2 ^F2 | [GB]2 [FA]2 [EA]2 [E^G]2 | [EA]8 | [CE]4 [FA]2 [FA]2 | D3 E [FA]4 | %10
 c2 (z ^F) A2 z D x2 | C2 D2 E4 | [EG]4 [EA]2 [GB]2 | (G2 F2) [Gc]4 | [Fd]2 [DA]2 [Ec]2 [EB]2 | %15
 [CA]8 |] %16
V:2
 x4 E3 A2 | x8 | ^G3 e2 x3 | B4 A4 | x6 A2 | x4 A4 | x8 | x8 | x8 | G4 x4 | G3 (B2 E3) G2 | F4 E4 | %12
 x8 | c4 x4 | x8 | x8 |] %16
V:3
 [A,C]4 [E,B,]2 [A,B,]2 x | [G,D]4 [C,E]4 | [B,,D]2 [C,C]2 [B,,D]2 [A,,E]2 | [E,B,]4 [A,,C]4 | %4
 A,4 [E,G,]2 (A,B,) | C,2 B,,2 [A,,C]4 | [G,,D]2 (DC) [E,B,]2 [E,B,]2 | [A,,C]8 | %8
 A,2 G,2 [F,C]2 (DC) | (C2 B,2) [F,C]4 | [A,C]2 [E,B,]2 [A,C]2 [E,B,]2 x2 | (A,3 B,) [C,C]4 | %12
 z2 B,2 [A,C]2 [G,D]2 | (A,3 B,) [E,C]4 | (CB,) [F,A,]2 [E,A,]2 [E,^G,]2 | [A,,A,]8 |] %16
V:4
 x9 | x8 | x8 | x8 | A,4 F,2 x2 | C4 x4 | x2 D,2 x4 | x8 | C4 D,2 x2 | x8 | x10 | F,4 x4 | C4 x4 | %13
 F,4 x4 | D,2 x6 | x8 |] %16

